img/icon_linkedin.svg

<?xml version="1.0" encoding="UTF-8" standalone="no"?>
<svg width="25px" height="25px" viewBox="0 0 25 25" version="1.1" xmlns="http://www.w3.org/2000/svg" xmlns:xlink="http://www.w3.org/1999/xlink">
    <!-- Generator: Sketch 3.7.2 (28276) - http://www.bohemiancoding.com/sketch -->
    <title>Shape</title>
    <desc>Created with Sketch.</desc>
    <defs></defs>
    <g id="Symbols" stroke="none" stroke-width="1" fill="none" fill-rule="evenodd">
        <g id="team-member-no-text" transform="translate(-160.000000, -86.000000)" fill="#CDCDCD">
            <g id="Group-Copy-5-+-car7-Copy">
                <g id="Group-Copy-5">
                    <g id="networks-copy-2" transform="translate(160.000000, 86.000000)">
                        <g id="Layer_1">
                            <path d="M19.5154167,18.3904167 L19.5154167,13.5104167 C19.5154167,10.8958333 18.1195833,9.67916667 16.25875,9.67916667 C14.7570833,9.67916667 14.0841667,10.5054167 13.7091667,11.085 L13.7091667,9.87916667 L10.88,9.87916667 C10.9175,10.6779167 10.88,18.3904167 10.88,18.3904167 L13.7091667,18.3904167 L13.7091667,13.6370833 C13.7091667,13.3833333 13.7275,13.1291667 13.8025,12.9475 C14.0066667,12.4391667 14.4720833,11.9129167 15.2533333,11.9129167 C16.2775,11.9129167 16.6866667,12.6933333 16.6866667,13.8370833 L16.6866667,18.3908333 L19.5154167,18.3908333 L19.5154167,18.3904167 Z M7.89958333,8.7175 C8.88583333,8.7175 9.50041667,8.06333333 9.50041667,7.24625 C9.48208333,6.41166667 8.88583333,5.77625 7.91833333,5.77625 C6.95083333,5.77625 6.31791667,6.41125 6.31791667,7.24625 C6.31791667,8.06333333 6.93208333,8.7175 7.88166667,8.7175 L7.89958333,8.7175 L7.89958333,8.7175 Z M12.5,25 C5.59666667,25 0,19.4033333 0,12.5 C0,5.59625 5.59666667,0 12.5,0 C19.4033333,0 25,5.59625 25,12.5 C25,19.4033333 19.4033333,25 12.5,25 L12.5,25 Z M9.31416667,18.3904167 L9.31416667,9.87916667 L6.48541667,9.87916667 L6.48541667,18.3904167 L9.31416667,18.3904167 L9.31416667,18.3904167 Z" id="Shape"></path>
                        </g>
                    </g>
                </g>
            </g>
        </g>
    </g>
</svg>

<svg width="25" height="25" xmlns="http://www.w3.org/2000/svg"><path d="M19.515 18.39v-4.88c0-2.614-1.395-3.83-3.256-3.83-1.502 0-2.175.825-2.55 1.405V9.879H10.88c.037.799 0 8.511 0 8.511h2.83v-4.753c0-.254.017-.508.092-.69.205-.508.67-1.034 1.451-1.034 1.024 0 1.434.78 1.434 1.924v4.554h2.828zM7.9 8.717c.986 0 1.6-.654 1.6-1.47-.018-.835-.614-1.47-1.582-1.47-.967 0-1.6.634-1.6 1.47 0 .816.614 1.47 1.564 1.47H7.9zM12.5 25C5.597 25 0 19.403 0 12.5 0 5.596 5.597 0 12.5 0S25 5.596 25 12.5C25 19.403 19.403 25 12.5 25zm-3.186-6.61V9.88H6.485v8.51h2.83z" fill="#CDCDCD" fill-rule="evenodd"/></svg>
